X:44
T:Christmas Eve
T:Tommy Coen's
M:C|
E:7
C:Tommy Coen
Z:Boston
R:reel
K:G
GE|D3 E G3 A|B2 dB ABGB|ABGE ~D3 E|G2 BG ABGE|D3 E ~G3 A|B2 dB ABGA|BA ~A2 GEBG| ABGE G3:|
A|BA (3Bcd edeg|agge g2 eg|a2 ge gage|dedB ABGA|BA (3Bcd edeg|agge g2 eg|a2 ge d2 BG| ABGE G2:|
dc|BG ~G2 dGBd|eg ~g2 egdc|BG ~G2 dGBG|EA ~A2 EA ~A2|BG ~G2 dGBd|eggf ~g3 a|bgag edBG|ABGE G2:|
<end>
<start>
